X: 162
T: No_243_Song_of_Friendship_(d).krn
N: Derived from No_243_Song_of_Friendship_(d).krn
%%abc-version 2.0
%%abcx-abcm2ps-target-version 5.9.1 (29 Sep 2008)
%%abc-creator hum2abc beta
%%abcx-conversion-date 2019/03/15 08:38:45
%%humdrum-veritas 237791501
%%humdrum-veritas-data 747058416
%%linebreak <none>
%%barnumbers 0
L: 1/8
M: 2/4
K: G clef=bass
[K:clef=bass][M:2/4]D,A, A,F,3//A,// | 
A,2A,2 | 
A,F, F,D,3//F,// | 
E,/D,/D, D, z | 
B,,D, E,/D,/B,,3//D,// ||  
[M:5/8]D,2D,2D, ||  
[M:2/4]A,2A,F,3//A,// | 
A,2A,2 | 
A,F, F,D,3//F,// ||  
[M:5/8]E,/D,/D,D, z B,, ||  
[M:2/4]D,2E,/D,/B,,3//D,// | 
D,2D, z |]  



